X: 4709
T: Boys Of Ballinahinch, The
R: reel
M: 4/4
K: Dmajor
ag|:f3d edBA|(3Bcd ef geag|f3d edBA|dBAG FDD2:|
fgaf d3g|fgaf g3a|fgaf gfef|(3gfe (3fed ed (3Bcd|
fgaf d3g|fgaf g3a|b2 af gfed|(3Bcd ef g2 ag||

